X:35
T: AUF AUF IHR BRUEDER UND SEID STARK
N: B0044
O: Europa, Mitteleuropa, Deutschland, Wuerttemberg
R: Kriegs -, Sieges -, Soldaten - Lied
M: 4/4
L: 1/8
K: D
A2 | d3AAGFE | D2D2D3
F | EACEEDCB, | A,4z2
AG | F2F2F3A | AGGFG2
GF | E2E2E3G | GFFEF3
A | d3AGFED | A4
c4 | d3BAGFE | D4z2

@@@ Tune index: 1838
